X: 13792
T: Forward
R: jig
M: 6/8
K: Gmajor
|:gdB GDG|E3 DEG|A2A- AGA|Bde dBG|
ggf edB|E3 DEG|A3 AGA|1 BGF G2B:|2 BGF GBd||
|:ecB A2A|dBA G3|cAG FGA-|AGF GBd|
ecB A2A|dBA G3|cAG FGA|BGF GBd:|

